icons/line/sort-horizontal.svg

<svg width="24" height="24" viewBox="0 0 24 24" fill="none" xmlns="http://www.w3.org/2000/svg">
<path fill-rule="evenodd" clip-rule="evenodd" d="M17.7071 4.29289C17.3166 3.90237 16.6834 3.90237 16.2929 4.29289C15.9024 4.68342 15.9024 5.31658 16.2929 5.70711L17.5858 7H10C9.44772 7 9 7.44772 9 8C9 8.55228 9.44772 9 10 9H17.5858L16.2929 10.2929C15.9024 10.6834 15.9024 11.3166 16.2929 11.7071C16.6834 12.0976 17.3166 12.0976 17.7071 11.7071L20.7071 8.70711C21.0976 8.31658 21.0976 7.68342 20.7071 7.29289L17.7071 4.29289ZM6.29289 12.2929C6.68342 11.9024 7.31658 11.9024 7.70711 12.2929C8.09763 12.6834 8.09763 13.3166 7.70711 13.7071L6.41421 15H14C14.5523 15 15 15.4477 15 16C15 16.5523 14.5523 17 14 17H6.41421L7.70711 18.2929C8.09763 18.6834 8.09763 19.3166 7.70711 19.7071C7.31658 20.0976 6.68342 20.0976 6.29289 19.7071L3.29289 16.7071C2.90237 16.3166 2.90237 15.6834 3.29289 15.2929L6.29289 12.2929Z" fill="currentColor"/>
</svg>

<svg width="24" height="24" fill="none" xmlns="http://www.w3.org/2000/svg"><path fill-rule="evenodd" clip-rule="evenodd" d="M17.707 4.293a1 1 0 10-1.414 1.414L17.586 7H10a1 1 0 000 2h7.586l-1.293 1.293a1 1 0 001.414 1.414l3-3a1 1 0 000-1.414l-3-3zm-11.414 8a1 1 0 011.414 1.414L6.414 15H14a1 1 0 110 2H6.414l1.293 1.293a1 1 0 11-1.414 1.414l-3-3a1 1 0 010-1.414l3-3z" fill="currentColor"/></svg>
